icons/midnadark/apps/32/baloo.svg

<svg xmlns="http://www.w3.org/2000/svg" viewBox="0 0 48 48"><defs><linearGradient y1="545.8" x2="0" y2="517.8" gradientUnits="userSpaceOnUse"><stop stop-color="#3889e9"/><stop offset="1" stop-color="#5ea5fb"/></linearGradient><linearGradient id="0" gradientUnits="userSpaceOnUse" y1="545.14" x2="0" y2="518.14"><stop stop-color="#197ff1"/><stop offset="1" stop-color="#21c6fb"/></linearGradient></defs><g transform="matrix(1.71429 0 0 1.71429-662.92-887.73)"><g transform="translate(.135.045)"><circle r="14" cy="531.8" cx="400.57" fill="url(#0)"/><circle cx="400.57" cy="531.8" r="14" fill="#5ea5fb" fill-opacity="0"/></g><path d="m132.77 118.03l-27.945-27.945c6.735-9.722 10.1-20.559 10.1-32.508 0-7.767-1.508-15.195-4.523-22.283-3.01-7.089-7.088-13.199-12.221-18.332-5.133-5.133-11.242-9.207-18.33-12.221-7.09-3.01-14.518-4.522-22.285-4.522-7.767 0-15.195 1.507-22.283 4.522-7.089 3.01-13.199 7.088-18.332 12.221-5.133 5.133-9.207 11.244-12.221 18.332-3.01 7.089-4.522 14.516-4.522 22.283 0 7.767 1.507 15.193 4.522 22.283 3.01 7.088 7.088 13.197 12.221 18.33 5.133 5.134 11.244 9.207 18.332 12.222 7.089 3.02 14.516 4.522 22.283 4.522 11.951 0 22.787-3.369 32.509-10.1l27.945 27.863c1.955 2.064 4.397 3.096 7.332 3.096 2.824 0 5.27-1.032 7.332-3.096 2.064-2.063 3.096-4.508 3.096-7.332.0001-2.877-1-5.322-3.01-7.331m-49.41-34.668c-7.143 7.143-15.738 10.714-25.787 10.714-10.05 0-18.643-3.572-25.786-10.714-7.143-7.143-10.714-15.737-10.714-25.786 0-10.05 3.572-18.644 10.714-25.786 7.142-7.143 15.738-10.714 25.786-10.714 10.05 0 18.643 3.572 25.787 10.714 7.143 7.142 10.715 15.738 10.715 25.786 0 10.05-3.573 18.643-10.715 25.786" fill="#fff" fill-opacity=".847" transform="matrix(.10327 0 0 .10327 393.68 524.82)"/></g></svg>

<?xml version="1.0" encoding="UTF-8" standalone="no"?>
<!-- Created with Inkscape (http://www.inkscape.org/) -->

<svg
   xmlns:sketch="http://www.bohemiancoding.com/sketch/ns"
   xmlns:dc="http://purl.org/dc/elements/1.1/"
   xmlns:cc="http://creativecommons.org/ns#"
   xmlns:rdf="http://www.w3.org/1999/02/22-rdf-syntax-ns#"
   xmlns:svg="http://www.w3.org/2000/svg"
   xmlns="http://www.w3.org/2000/svg"
   xmlns:xlink="http://www.w3.org/1999/xlink"
   xmlns:sodipodi="http://sodipodi.sourceforge.net/DTD/sodipodi-0.dtd"
   xmlns:inkscape="http://www.inkscape.org/namespaces/inkscape"
   width="48"
   height="48"
   id="svg5453"
   version="1.1"
   inkscape:version="0.91 r13725"
   sodipodi:docname="baloo.svg">
  <defs
     id="defs5455">
    <linearGradient
       id="linearGradient4422">
      <stop
         style="stop-color:#197ff1;stop-opacity:1"
         offset="0"
         id="stop4424" />
      <stop
         style="stop-color:#21c6fb;stop-opacity:1"
         offset="1"
         id="stop4426" />
    </linearGradient>
    <linearGradient
       id="linearGradient4232">
      <stop
         id="stop4234-0"
         offset="0"
         style="stop-color:#3889e9;stop-opacity:1" />
      <stop
         id="stop4236"
         offset="1"
         style="stop-color:#5ea5fb;stop-opacity:1" />
    </linearGradient>
    <linearGradient
       inkscape:collect="always"
       xlink:href="#linearGradient4232"
       id="linearGradient3426"
       x1="399.57144"
       y1="545.79797"
       x2="399.57144"
       y2="517.79797"
       gradientUnits="userSpaceOnUse" />
    <linearGradient
       inkscape:collect="always"
       xlink:href="#linearGradient4422"
       id="linearGradient4181"
       gradientUnits="userSpaceOnUse"
       x1="399.9939"
       y1="545.13873"
       x2="399.9939"
       y2="518.13873" />
  </defs>
  <sodipodi:namedview
     id="base"
     pagecolor="#ffffff"
     bordercolor="#666666"
     borderopacity="1.0"
     inkscape:pageopacity="0"
     inkscape:pageshadow="2"
     inkscape:zoom="3.9218751"
     inkscape:cx="-40.080305"
     inkscape:cy="27.005514"
     inkscape:document-units="px"
     inkscape:current-layer="layer1-9"
     showgrid="true"
     fit-margin-top="0"
     fit-margin-left="0"
     fit-margin-right="0"
     fit-margin-bottom="0"
     inkscape:window-width="1366"
     inkscape:window-height="685"
     inkscape:window-x="0"
     inkscape:window-y="0"
     inkscape:window-maximized="1"
     inkscape:showpageshadow="false"
     borderlayer="true"
     showguides="false">
    <inkscape:grid
       type="xygrid"
       id="grid4063" />
    <sodipodi:guide
       position="1.1650391e-05,32.000026"
       orientation="32,0"
       id="guide4157" />
    <sodipodi:guide
       position="1.1650391e-05,2.6367188e-05"
       orientation="0,32"
       id="guide4159" />
    <sodipodi:guide
       position="32.000012,2.6367188e-05"
       orientation="-32,0"
       id="guide4161" />
    <sodipodi:guide
       position="32.000012,32.000026"
       orientation="0,-32"
       id="guide4163" />
    <sodipodi:guide
       position="2.0000117,30.000026"
       orientation="28,0"
       id="guide4167" />
    <sodipodi:guide
       position="2.0000117,2.0000264"
       orientation="0,28"
       id="guide4169" />
    <sodipodi:guide
       position="30.000012,2.0000264"
       orientation="-28,0"
       id="guide4171" />
    <sodipodi:guide
       position="30.000012,30.000026"
       orientation="0,-28"
       id="guide4173" />
    <sodipodi:guide
       position="2.0000117,30.000026"
       orientation="28,0"
       id="guide4181" />
    <sodipodi:guide
       position="2.0000117,2.0000264"
       orientation="0,14"
       id="guide4183" />
    <sodipodi:guide
       position="16.000012,2.0000264"
       orientation="-28,0"
       id="guide4185" />
    <sodipodi:guide
       position="16.000012,30.000026"
       orientation="0,-14"
       id="guide4187" />
    <sodipodi:guide
       position="5.0000117,30.000026"
       orientation="28,0"
       id="guide4143" />
    <sodipodi:guide
       position="5.0000117,2.0000264"
       orientation="0,22"
       id="guide4145" />
    <sodipodi:guide
       position="27.000012,2.0000264"
       orientation="-28,0"
       id="guide4147" />
    <sodipodi:guide
       position="27.000012,30.000026"
       orientation="0,-22"
       id="guide4149" />
    <sodipodi:guide
       position="27,30"
       orientation="0,-7"
       id="guide4155" />
    <sodipodi:guide
       position="20,30"
       orientation="7,0"
       id="guide4158" />
    <sodipodi:guide
       position="20,23"
       orientation="0,7.00001"
       id="guide4160" />
    <sodipodi:guide
       position="27.00001,23"
       orientation="-7,-1e-05"
       id="guide4162" />
    <sodipodi:guide
       position="7.0000117,21.999965"
       orientation="12,0"
       id="guide4203" />
    <sodipodi:guide
       position="7.0000117,9.9999653"
       orientation="0,12"
       id="guide4205" />
    <sodipodi:guide
       position="19.000012,9.9999653"
       orientation="-12,0"
       id="guide4207" />
    <sodipodi:guide
       position="19.000012,21.999965"
       orientation="0,-12"
       id="guide4209" />
    <sodipodi:guide
       position="10.000012,21.999965"
       orientation="12,0"
       id="guide4151" />
    <sodipodi:guide
       position="10.000012,9.9999653"
       orientation="0,12"
       id="guide4153" />
    <sodipodi:guide
       position="22.000012,9.9999653"
       orientation="-12,0"
       id="guide4156" />
    <sodipodi:guide
       position="22.000012,21.999965"
       orientation="0,-12"
       id="guide4164" />
  </sodipodi:namedview>
  <metadata
     id="metadata5458">
    <rdf:RDF>
      <cc:Work
         rdf:about="">
        <dc:format>image/svg+xml</dc:format>
        <dc:type
           rdf:resource="http://purl.org/dc/dcmitype/StillImage" />
        <dc:title />
      </cc:Work>
    </rdf:RDF>
  </metadata>
  <g
     inkscape:label="Capa 1"
     inkscape:groupmode="layer"
     id="layer1"
     transform="translate(-384.57143,-499.798)">
    <g
       id="layer1-9"
       inkscape:label="Capa 1"
       transform="matrix(1.5,0,0,1.5,-192.36372,-273.94129)">
      <g
         transform="matrix(1.1428581,0,0,1.1428581,-57.327415,-75.995025)"
         id="g4284">
        <g
           id="layer1-3"
           inkscape:label="Capa 1"
           transform="translate(0.13524268,0.04517549)"
           style="stroke:none;stroke-width:1.29999995;stroke-miterlimit:4;stroke-dasharray:none;stroke-opacity:1">
          <circle
             r="13.999958"
             cy="531.79791"
             cx="400.57138"
             id="path3377"
             style="opacity:1;fill:url(#linearGradient4181);fill-opacity:1;stroke:none;stroke-width:1.29999995;stroke-miterlimit:4;stroke-dasharray:none;stroke-dashoffset:0;stroke-opacity:1" />
          <circle
             style="opacity:1;fill:#5ea5fb;fill-opacity:0;stroke:none;stroke-width:1.29999995;stroke-miterlimit:4;stroke-dasharray:none;stroke-dashoffset:0;stroke-opacity:1"
             id="circle4174"
             cx="400.57144"
             cy="531.79797"
             r="13.999958" />
          <circle
             style="opacity:1;fill:url(#linearGradient3426);fill-opacity:1;stroke:none;stroke-width:1.29999995;stroke-miterlimit:4;stroke-dasharray:none;stroke-dashoffset:0;stroke-opacity:1"
             id="ellipse4233"
             cx="400.57138"
             cy="531.79791"
             r="0" />
        </g>
        <g
           id="search19"
           sketch:type="MSLayerGroup"
           transform="matrix(0.1032676,0,0,0.1032676,393.68467,524.82103)"
           style="fill:#ffffff;fill-opacity:0.84722218">
          <path
             d="M 132.77,118.025 104.825,90.08 c 6.735,-9.722 10.104,-20.559 10.104,-32.508 0,-7.767 -1.508,-15.195 -4.523,-22.283 C 107.392,28.2 103.318,22.09 98.185,16.957 93.052,11.824 86.943,7.75 79.855,4.736 72.765,1.721 65.337,0.214 57.57,0.214 49.803,0.214 42.375,1.721 35.287,4.736 28.198,7.75 22.088,11.824 16.955,16.957 11.822,22.09 7.748,28.201 4.734,35.289 1.719,42.378 0.212,49.805 0.212,57.572 c 0,7.767 1.507,15.193 4.522,22.283 3.014,7.088 7.088,13.197 12.221,18.33 5.133,5.134 11.244,9.207 18.332,12.222 7.089,3.015 14.516,4.522 22.283,4.522 11.951,0 22.787,-3.369 32.509,-10.104 l 27.945,27.863 c 1.955,2.064 4.397,3.096 7.332,3.096 2.824,0 5.27,-1.032 7.332,-3.096 2.064,-2.063 3.096,-4.508 3.096,-7.332 0.001,-2.877 -1.003,-5.322 -3.014,-7.331 l 0,0 z M 83.357,83.357 C 76.214,90.5 67.619,94.071 57.57,94.071 47.522,94.071 38.927,90.499 31.784,83.357 24.641,76.214 21.07,67.62 21.07,57.571 c 0,-10.048 3.572,-18.644 10.714,-25.786 7.142,-7.143 15.738,-10.714 25.786,-10.714 10.048,0 18.643,3.572 25.787,10.714 7.143,7.142 10.715,15.738 10.715,25.786 0,10.049 -3.573,18.643 -10.715,25.786 l 0,0 z"
             id="path1074"
             sketch:type="MSShapeGroup"
             inkscape:connector-curvature="0"
             style="fill:#ffffff;fill-opacity:0.84722218" />
        </g>
      </g>
    </g>
  </g>
</svg>
